X:1
T:JUPITER
T:NIZEYIMANA Parfait
T:MELODIE DELL'ALBA 
T:EXTRACTED FROM 'JUPITER'
T:2019
T:2019
T:2019
T:2019
T:2019
T:2019
T:2019
C:NIZEYIMANA Parfait
Z:2019
%%score 1 { ( 2 3 ) | ( 4 5 ) }
L:1/8
Q:1/4=80
M:3/4
K:F
V:1 treble nm="Voice"
V:2 treble nm="Piano"
V:3 treble 
V:4 bass 
V:5 bass 
V:1
 z2 z2 de | f2 e2 d2 | c4 G^F | G2 A2 G2 | F/F/F F2 A,C | !~(!D4 !~)!F2 | EC F>G F2 | E2 D>E D2 | %8
 C2 A,4 | A2 a2 A,C | !~(!D4 !~)!F2 | EC F>G F2 | E2 D>E D2 | d2 F2 G2 |: F4 ^F2 | G4 cA | G4 FA | %17
 G2 C2 cA | G4 FA | G2 C2 Ac :| d4 de | f2 e2 d2 | c4 G^F | G2 A2 G2 |: C2 c2 f2 | d4 f2 | %26
 cg f2 a2 |{^f} g2 f2 g2 | c2 A4 | g^f g2 c2 | g^f g2 d'2 | c'b a4 :| ^c'2{d'} d'4 | g2 ^f2 g2 | %34
 c2 g2 e2 | !fermata!f6 |] %36
V:2
 A4 dB | F2 e2 d2 | c4 e2 | e2 d2 Bc | [Ac]6 | [FB]6 | [Gc]2 [fa]4 | ge B2 d2 | %8
 !arpeggio![eg]2 fe dc | BG ^FG z2 | Af d/c/B/A/ Ff | z{d} c [ad']2 [fa][df] | %12
 z{b} [ec'] [df]2 !arpeggio![fb]2 | a/f/d/d'/ g^f [eg][gc'] |: [fa]2 !arpeggio![fa]2 !trill(!Tf2 | %15
 z G/A/ =B/c/d/G/ [Ac]2 |{B} ce dc [df][fa] |{d} eg fe [ac']2 |{B} ce dc [df][fa] | %19
{d} eg fe [ac']2 :| dc BA{c} Bc | ef Be d2 | c'/b/a/g/ f/c/{e}f e2 | z{f} e [fa]2 Bc |: %24
 [Ac]2 z{e} [cf] T[fa]2 | z{c} [Bd] f/e/d/B/ B/d/c/f/ | [gc']2 z{e} [df] d/f/g/a/ | %27
 z{d} [Gc] B/c/B/d/ e/B/e/B/ | ed cB df | z{^f} [eg] c'b ag | z{^f} [eg] c'b ab | [ce][df] cd ef :| %32
 [ce]a [Ad]2 !arpeggio![df]2 | [ce]d fg !arpeggio![eg]2 | A{B}c z{^f} [eg] !arpeggio![gc']2 | %35
 !fermata![cf]6 |] %36
V:3
 F4 z2 | D2 c2 B2 | A4 c2 | c2 A2 G2 | F6 | D6 | E2 d4 | [Gc]2 [DF]4 | c2 [FA]4 | x6 | x6 | %11
 z G f2 dA | z c B2 d2 | x2 A2 ce |: c2 c2 !trill)!A2 | z4 E2 | G4 Ad | B4 e2 | G4 Ad | B4 e2 :| %20
 F4 x2 | A2 G2 A2 | x4 c2 | z c d2 G2 |: F2 x A c2 | x F z4 | e2 x A A2 | x E z4 | A2 F2 F2 | %29
 x c g2 e2 | x c g2 =f2 | GB A4 :| A2 F2 A2 | G2 G2 c2 | E2 x c e2 | A6 |] %36
V:4
 F,6 | [D,F,]2 [E,G,]2 [F,A,]2 | C4 C2 | C2 [F,A,]2 C2 | [C,F,]6 | [D,F,]6 | [E,G,]2 [F,A,]4 | %7
 [E,G,]2 [D,F,]4 | [E,G,]2 [F,A,]4 | [E,G,]2 [E,G,]2 [E,G,]2 | [D,F,]6 | [E,G,]2 [F,A,]4 | %12
 [E,G,]2 [D,F,]4 | [F,A,]4 [E,G,]2 |: [A,C]2 [A,C]2 [^F,A,]2 | [=B,,D,]4 [C,E,]2 | G,4 A,2 | %17
 B,4 [C,E,]2 | G,4 A,2 | B,4 [C,E,]2 :| [D,F,]4 [D,F,]2 | A,2 G,2 F,2 | C4 C2 | C2 [F,A,]2 C2 |: %24
 F,2 F,2 F,2 | [D,F,]6 | [E,G,]2 [F,A,]4 | [E,G,]2 [D,F,]4 | [E,G,]2 [F,A,]4 | [E,G,]2 [E,G,]4 | %30
 [E,G,]4 [D,F,]2 | [E,G,]2 [A,C]4 :| [^CE]2 [F,A,]4 | [E,G,]4 [E,G,]2 | E,2 [E,G,]2 [E,G,]2 | %35
 !fermata![C,F,]6 |] %36
V:5
 C,6 | B,,2 C,2 D,2 | F,4 C,2 | C,2 D,2 C,2 | z6 | B,,6 | C,2 D,4 | C,2 B,,4 | C,2 D,4 | %9
 C,2 C,2 C,2 | B,,6 | C,2 D,4 | C,2 B,,4 | D,4 C,2 |: F,2 F,2 D,2 | G,,4 A,,2 | C,4 D,2 | %17
 E,4 A,,2 | C,4 D,2 | E,4 A,,2 :| B,,4 B,,2 | F,2 E,2 D,2 | F,4 C,2 | C,2 D,2 C,2 |: C,2 C,2 C,2 | %25
 B,,6 | C,2 D,4 | C,2 B,,4 | C,2 D,4 | C,2 C,4 | C,4 B,,2 | C,2 F,4 :| A,2 D,4 | C,4 C,2 | %34
 A,,2 C,2 C,2 | F,,6 |] %36

